X:1
T:Al marmo del mio core
T:Tomaso Cecchino
T:Source : Canti Spirituali a uno, due et tre voci + BC ---Venetia---G.Vincenti---1613. Editor : André Vierendeels (27/10/16).
T:Notes : Original clefs : C1, F4 Editorial accidentals above the staff Note values have been halved in 3-beat measures m 1 in B : 3rth "G" notated as quanter in original print
T:Al marmo del mio core
T:©
T:©
T:©
C:Tomaso Cecchino
Z:©
%%score 1 2
L:1/8
Q:1/4=100
M:4/4
K:C
V:1 treble nm="Soprano" snm="S"
V:2 bass nm="MusicXML Part"
V:1
 z2 B2 d3 d | d2 B2 A4 | A2 G2 G3 D | E2 ^F2 GABc | d3 c/B/ A4 | B4 z dBc | d4 ddBc | d2 A2 d4- | %8
w: Al mar- mo|del mio co-|re, con cen- to|no- d'in- tor- * * *||ti, di mil- l'in-|giu- rie, di mil- l'in-|giu- rie tor-|
 d2 ^cB c4 | d8 :: B4 c2 B2 | A6 B2 | c4 B4 | z2 d4 cB | A3 B c2 B2 | z2 d4 B2 | c8 | B2 B4 c2 | %18
w: |ti.|Sta Gie- su|mio le-|ga- to,|Sta Gie- su|mio le- ga- to,|cru- del-|men-|te, cru- dal-|
 d2 cB A4 | G8 |[M:3/4] B2 B2 c2 | A4 B2 | c2 c2 c2 | A3 G A2 | d2 d2 ^c2 |[M:4/4] d8 :: B4 B2 G2 | %27
w: men- te sfer- za-|to,|son sfer- ze'a|suoi mar-|ti- ri, gl'im-|pu- ri miei|de- si- *|ri,|ma tra sue|
 A3 G AB c2- | cB A4 ^G2 | A3 A dcBA | ^G3 A B4 | A4 c2 d2 | e6 dc | B4 B4 | d2 d2 d4- | %35
w: pia- * * * *|* * * ghe,|lan- gue'un sol _ _ _|_ do- lo-|re, che sia|mar- mo'l mio|co- re,|che sia mar-|
 d2 ^FG A4 | G8 :| %37
w: * mo'l mio co-|re.|
V:2
"^Bass""^BC" z2 G,2 G,3 G, | ^F,2 G,2 D,4 | D,2 G,,2 C,3 B,, | C,2 A,,2 G,,4- | %4
w: Al mar- mo|del mio co-|re, con cen- to|no- d'in- tor-|
"^B" G,,A,,B,,C, D,4 | G,,G,E,F, G,4 | G,D,B,,C, D,2 E,2 | D,6 ^C,B,, |"^B" A,,8 | D,8 :: E,8 | %11
w: |ti, di mil- l'in- giu-|rie, di mil- l'in- giu- rie|tor- * *||ti.|Sta|
 F,8 | E,8 |"^B" D,6 E,2 | F,4 E,4 | z4 G,4- | G,4 ^F,4 |"^-natural" G,6 F,E, |"^B" D,8 | G,,8 | %20
w: Gie-|su|mio le-|ga- to,|cru-|* del-|men- te sfer-|za-|to,|
[M:3/4] G,2 G,2 E,2 | F,4 G,2 | C,2 C,2 F,2 |"^B" F,3 E, F,2 | D,2 A,,4 |[M:4/4] D,8 :: %26
w: son sfer- ze'a|suoi mar-|ti- ri, gl'im-|pu- ri miei|de- si-|ri,|
 G,,4 G,,2 C,2 | F,,4 F,,4 |"^B" F,4 E,4 | D,4 B,,4 | E,8 | A,,8 | z4 C,2 D,2 |"^B" E,6 D,C, | %34
w: ma tra sue|pia- ghe|l'an- gue'un|sol do-|lo-|re,|che sia|mar- mo'l mio|
 B,,6 C,2 | D,8 | G,,8 :| %37
w: co- *||re.|

